X:567
T:Highlandman That Kissed His Granny, The
T:Highlandman Who Kissed His Granny, The
R:reel
H:Belongs to the "Highlander Kissed His Granny" family.
H:Other related tunes are "John Stenson's #1" #392
H:"The Jolly Seven" #559, "The Gravel Walks" #60,
H:"The Highlandman" highland#10
H:Also played with the parts in the opposite order
Z:id:hn-reel-567
M:C|
K:Ador
cAAG ~A3B|cAAc dB~B2|cA~A2 ABcd|egfe dB~B2:|
|:cggf gage|cege dB~B2|cggf gafg|afge dB~B2:|
P:variations
|:cAAG ~A3B|cA~A2 dBGB|cAAG ABcd|efge dBGB:|
|:cggf ~g3e|cege dBGB|cggf g2fg|(3agf ge dBGB:|
P:more variations
|:ceAG ABcA|ceAe dBGB|ceAG ABcd|egge dBGB:|
|:cgge g2ge|cgge dBGB|cgge gefg|a2ge dB~B2:|
P:even more variations
|:ce~A2 ABcA|ceAe dBGB|ce~A2 ABcd|egge dBGB:|
|:cgge gcge|cgge dBGB|cgge gcge|afge dBGB:|

